X: 39282
T: Táimse Im' Chodladh
R: waltz
M: 3/4
K: Gmajor
(AF)|G3 A Bc|d4 fe|d4 cA|GF D4|
B4 AG|Ad d2 cA|G4 G2|G4 AF|
G3 A Bc|d4 fe|d4 cA|G>F D4|
B4 AG|Ad d2 cA|G4 G2|G4 AB|
c2 A2 d2|f2 d2 (3def|g4 g2|
g>f d2 d2|f2 g2 a2|g4 f>e|d4 cA|
G>A G2 de|f2 g2 a2|g4 fe|d4 cA|
G>F D4|B2 AG|Ad d2 (d/c/A/F/)|G4 G2|G4|

